X: 72
T: Vals efter Jonte i Byom
O: J\"amtland, Sweded
R: waltz
S: http://www.folksweden.com/files/Vals_efter_Jonte_i_Byom.pdf (Tim Rued) 2021-4-2
Z: 2021 John Chambers <jc:trillian.mit.edu>
M: 3/4
L: 1/8
K: A
E2 |\
E2 cB A^G | A2 c2 e2 | a2 ^gb a=g | e2 d2 B2 || c2 A2 Ac | B2^G2 BG |
A2 cB A^G | A4 :: AB | c4 c2 | c2 B2 c2 | e4 c2 | c4 Bc || d4 d2 |
d2 BG Bd | f4 f2 | e3 d c2 || e3 d Bd | c2 A2 Ac | B2 ^G2 BG | A4 :|
